X: 29731
T: Nyingen Shottish
R: reel
M: 4/4
K: Dminor
|:"Dm"DE FD "A7"EF GE|"Dm"FG A2 "(A7)"A3 B|"Dm"AG FE D3 F|1 ,3 "A7"EF G2 ^C4:|3,4 "C"ED =C2 "Dm"D4:|
|:"Dm"a3 b/a/ "Gm"g3 a/g/|"Dm"f3 g/f/ "A7"e4|"Dm"de fd "Gm"e3 d|1 ,3 "A7"^cd e2 A4:|2 "A7"^cA c2 "Dm"d4:|4[K:D] "A7"cA c2 "D"dd cB||
|:"D"AD FG Ad cB|"A7"AC EG A4|"A7"ce Be AG FE|1 ,3 "D"FG AB Ad cB:|2 "D"DF "A7"EC "D"Dd cB:|4 "D"DF "A7"EC "D"D4||

